X:1
T:God Rest Ye Merry Gentlemen
T:God Rest Ye Merry Gentlemen
T:xmas
C:xmas
L:1/8
Q:1/8=260
M:4/4
K:G
V:1 treble 
V:1
 [G,E]2 | [G,E]2 [EB]2 [EB]2 [DA]2 | [B,G]2 [A,F]2 [G,E]2 [G,D]2 | [G,E]2 [A,F]2 [B,G]2 [DA]2 | %4
 [EB][EB][EB] [EB]3 [G,E]2 | [G,E]2 [EB]2 [EB]2 [DA]2 | [B,G]2 [A,F]2 [G,E]2 [G,D]2 | %7
 [G,E]2 [A,F]2 [B,G]2 [DA]2 | [EB][EB][EB] [EB]3 E2 | [Ec]2 A2 [DB]2 c2 | [Fd]2 e2 [DB]2 A2 | %11
 [B,G]2 E2 [A,F]2 [B,G]2 | [DA][DA] [DA]2 [B,G]2 A2 | [DB]4 [Ec]2 [DB]2 | [DB]2 A2 [B,G]2 [A,F]2 | %15
 [G,E][G,E] [G,E]2 GF E2 | [DA][DA] [DA]2 [B,G]2 [DA]2 | [DB]2 [Ec]2 d2 e2 | %18
 [DB]2 [DA]2 [^DG]2 [DF]2 | [G,E]8 | %20

